storage/app/icons/phosphoricons/bold/article-ny-times-bold.svg

<svg xmlns="http://www.w3.org/2000/svg" fill="currentColor" viewBox="0 0 256 256"><path d="M156 92a12 12 0 0 1 12-12h64a12 12 0 0 1 0 24h-64a12 12 0 0 1-12-12m76 28h-64a12 12 0 0 0 0 24h64a12 12 0 0 0 0-24m0 40H80a12 12 0 0 0 0 24h152a12 12 0 0 0 0-24m0 40H80a12 12 0 0 0 0 24h152a12 12 0 0 0 0-24M96 144a12 12 0 0 0 0-24h-4V68h24v4a12 12 0 0 0 24 0V56a12 12 0 0 0-12-12H32a12 12 0 0 0-12 12v16a12 12 0 0 0 24 0v-4h24v52h-4a12 12 0 0 0 0 24Z"/></svg>

<svg xmlns="http://www.w3.org/2000/svg" viewBox="0 0 256 256" fill="currentColor"><path d="M156,92a12,12,0,0,1,12-12h64a12,12,0,0,1,0,24H168A12,12,0,0,1,156,92Zm76,28H168a12,12,0,0,0,0,24h64a12,12,0,0,0,0-24Zm0,40H80a12,12,0,0,0,0,24H232a12,12,0,0,0,0-24Zm0,40H80a12,12,0,0,0,0,24H232a12,12,0,0,0,0-24ZM96,144a12,12,0,0,0,0-24H92V68h24v4a12,12,0,0,0,24,0V56a12,12,0,0,0-12-12H32A12,12,0,0,0,20,56V72a12,12,0,0,0,24,0V68H68v52H64a12,12,0,0,0,0,24Z"/></svg>
